client/public/assets/icons/standard/carousel.svg

<svg xmlns="http://www.w3.org/2000/svg" width="100" height="100" viewBox="0 0 100 100"><path d="M76.26,37.7H73.57V64.63h2.69A3.75,3.75,0,0,0,80,60.89V41.44A3.75,3.75,0,0,0,76.26,37.7Z" fill="#fff"/><path d="M20,41.44V60.89a3.75,3.75,0,0,0,3.74,3.74h2.69V37.7H23.74A3.75,3.75,0,0,0,20,41.44Z" fill="#fff"/><path d="M66.46,34.33H33.54a3.75,3.75,0,0,0-3.74,3.74V64.26A3.75,3.75,0,0,0,33.54,68H66.46a3.75,3.75,0,0,0,3.74-3.74V38.07A3.75,3.75,0,0,0,66.46,34.33ZM60.89,61.27H37.77a1.21,1.21,0,0,1-1-1.83l7-12.19a.75.75,0,0,1,1.35,0l4.23,7.26a.81.81,0,0,0,1.35.07l3.44-4.94a.8.8,0,0,1,1.35,0l6.28,10A1,1,0,0,1,60.89,61.27Zm-.6-14.36a3.18,3.18,0,1,1,3.18-3.18A3.18,3.18,0,0,1,60.29,46.9Z" fill="#fff"/></svg>

<?xml version="1.0"?><svg xmlns="http://www.w3.org/2000/svg" width="100" height="100" viewBox="0 0 100 100"><path d="m76.3 37.7h-2.7v26.9h2.7a3.8 3.8 0 0 0 3.7-3.7v-19.5a3.8 3.8 0 0 0-3.7-3.7z m-56.3 3.7v19.5a3.8 3.8 0 0 0 3.7 3.7h2.7v-26.9h-2.7a3.8 3.8 0 0 0-3.7 3.7z m46.5-7.1h-33a3.8 3.8 0 0 0-3.7 3.8v26.2a3.8 3.8 0 0 0 3.7 3.7h33a3.8 3.8 0 0 0 3.7-3.7v-26.2a3.8 3.8 0 0 0-3.7-3.8z m-5.6 27h-23.1a1.2 1.2 0 0 1-1-1.9l7-12.1a0.8 0.8 0 0 1 1.3 0l4.3 7.2a0.8 0.8 0 0 0 1.3 0.1l3.4-5a0.8 0.8 0 0 1 1.4 0l6.3 10a1 1 0 0 1-0.9 1.7z m-0.6-14.4a3.2 3.2 0 1 1 3.2-3.2 3.2 3.2 0 0 1-3.2 3.2z" fill="#fff"></path></svg>
